X:3
T:All is Well
C:J.T.White
M:4/4
L:1/4
Q:1/4=100
K:AMaj
%%MIDI program 1 41 % Viola
%%MIDI program 2 41 % Viola
%%MIDI program 3 41 % Viola
%%MIDI program 4 41 % Viola
V:Treble
A2ee|e2d2|cefe|(f<e) cA|(B>c)ee|c4||(A>B)cc|e2e2|
ffe2|e2cc|A2A2|eee2| c2AB|cBAA|e2 ce|(f>e)ce|e4||
V:Alto
E2EE|E2F2|EEDE|(A<G)AF|(E>F)EE|E4||(A>G)EE|E2E2|
FFE2|E2AA|E2E2|EAE2|F2EE|FEFF|E2 AA|(F>E)EE|A4||
V:Tenor clef=treble-8
A2GA|B2A2|GABc|(d>B)cA|(B>c)AG|A4||(c>d)ee|(e<c)(cA)|
dd(d<c)|B2cc|e2e2|Bc(B<A)|(G<E)AG|ABcd|e2cA|(B>c)AG|A4||
V:Bass clef=bass
A,2E,E,|E,2D,2|C,E,F,E,|(D,<E,)F,A,|(E,>D,)C,E,|A,,4||(A,>G,)E,E,|(A,<G,)(F,E,)|
A,A,E,2|E,2F,F,|A,2A,2|E,E,E,2|C,2A,G,|F,E,F,F,|A,2E,E,|(F,>E,)A,E,|A,,4||


